public/svg/arleft.svg

<svg width="93" height="26" viewBox="0 0 93 26" fill="none" xmlns="http://www.w3.org/2000/svg">
<g clip-path="url(#clip0)">
<path d="M24.598 9.81932L28.7609 9.22819L32.9153 8.7172C34.3058 8.57693 35.6878 8.40661 37.0782 8.28638L41.2835 7.92568C46.8454 7.50487 52.4242 7.17424 58.0115 6.8436L66.3967 6.28252C69.1946 6.09216 71.984 5.83166 74.7819 5.57115C80.3352 5.01008 85.914 4.3989 91.4844 3.70757L90.0346 2.2648C90.2041 5.7515 90.2041 9.27828 90.1109 12.7449C90.0176 16.2116 89.9159 19.8486 90.0176 23.4555L91.4081 21.8424C85.8886 21.5218 80.3861 21.1411 74.8497 20.7203L58.2404 19.4478C52.7125 19.0371 47.2184 18.5962 41.6566 18.2455C36.0947 17.8949 30.5922 17.5943 25.0473 17.3538C24.8225 17.3405 24.6024 17.4333 24.4354 17.6118C24.2685 17.7903 24.1683 18.0399 24.1571 18.3056C24.1459 18.5714 24.2244 18.8315 24.3755 19.0288C24.5265 19.2261 24.7377 19.3444 24.9626 19.3577C30.482 19.7785 35.9845 20.2694 41.5125 20.8004L58.1048 22.3033C63.6242 22.8243 69.1267 23.3053 74.6716 23.7661C80.2165 24.227 85.736 24.6278 91.3063 24.9785C91.6509 24.9869 91.9848 24.8371 92.2378 24.5605C92.4908 24.284 92.6432 23.9022 92.6629 23.4956C92.6629 23.4956 92.6629 23.4055 92.6629 23.3654C92.5696 19.8887 92.8833 16.3519 92.9512 12.8351C93.019 9.31836 93.002 5.66133 93.002 2.07443C92.9472 1.63934 92.7529 1.24581 92.4594 0.975362C92.1658 0.704912 91.7955 0.57826 91.425 0.621636H91.3063C85.7614 1.34302 80.1657 2.02433 74.6038 2.62549C69.042 3.22665 63.4377 3.68753 57.8589 4.12838C52.2801 4.56923 46.6843 4.94996 41.097 5.57115L36.9002 6.0621C35.5013 6.23243 34.1108 6.44283 32.7118 6.6332L28.5659 7.29447L24.386 8.01586C24.2041 8.07242 24.046 8.20557 23.9413 8.39025C23.8366 8.57494 23.7927 8.79845 23.8177 9.01875C23.8427 9.23906 23.9349 9.44098 24.077 9.58657C24.2192 9.73215 24.4014 9.81136 24.5895 9.8093L24.598 9.81932Z" fill="#3A3C51"/>
<path d="M23.6496 2.82508C23.6949 6.16484 23.7118 9.53465 23.7005 12.9345L23.6327 18.9461C23.6327 20.9499 23.6327 22.9538 23.5394 24.9576L24.8875 23.9557C21.1655 21.8617 17.6808 19.6875 14.0012 17.4933C10.3215 15.2991 6.5232 12.9746 3.13183 10.8706V15.0285L5.7771 13.6058L8.50715 12.143C10.3978 11.1411 12.2207 10.1391 14.0775 9.13722L16.8075 7.45398C17.7147 6.88288 18.6219 6.32181 19.5291 5.73067C20.4363 5.13953 21.3266 4.53838 22.2168 3.90716C22.7001 3.56651 23.1664 3.18578 23.6496 2.82508ZM24.1414 0.0798029C23.124 0.373701 22.1235 0.707677 21.14 1.08173C20.148 1.4324 19.173 1.84319 18.1895 2.23395C17.206 2.6247 16.248 3.07556 15.2814 3.49637L12.4581 4.84897C10.5505 5.78077 8.67673 6.77267 6.80299 7.78462L3.97967 9.30755L1.19026 10.8706H1.10548C0.7761 11.0563 0.499247 11.3507 0.308329 11.7182C0.117413 12.0858 0.0205917 12.5108 0.0295544 12.9419C0.0385189 13.3731 0.15288 13.792 0.358843 14.148C0.564804 14.504 0.853561 14.782 1.19026 14.9484C4.9886 16.822 8.82086 18.6054 12.6616 20.3788C16.5023 22.1522 20.2922 23.9557 24.1244 25.8393H24.1753C24.2883 25.8953 24.4095 25.9244 24.5321 25.925C24.6546 25.9256 24.776 25.8976 24.8894 25.8427C25.0028 25.7878 25.1059 25.7071 25.1929 25.6051C25.2798 25.503 25.3489 25.3818 25.3962 25.2482C25.4489 25.1027 25.4749 24.9456 25.4725 24.7873C25.4132 22.7835 25.4132 20.7796 25.3792 18.7758L25.3114 12.7642C25.3114 8.75649 25.3114 4.8089 25.3708 0.841267C25.3551 0.701673 25.3148 0.567537 25.2524 0.447608C25.1899 0.327679 25.1068 0.224649 25.0084 0.145238C24.91 0.0658264 24.7985 0.0118169 24.6813 -0.0132688C24.564 -0.0383545 24.4436 -0.033953 24.3279 -0.000351226L24.1414 0.0798029Z" fill="#3A3C51"/>
<path d="M28.3297 12.6939C28.3297 12.6939 31.3056 12.233 35.7653 11.9825C37.9951 11.8623 40.598 11.5617 43.3959 11.4515C46.1937 11.3413 49.1612 11.1409 52.1456 11.0307C55.13 10.9205 58.0805 10.7802 60.8954 10.5999C63.7102 10.4195 66.2876 10.2893 68.5259 10.0789C70.7643 9.86848 72.6126 9.65808 73.9098 9.47773C75.207 9.29738 75.9446 9.17715 75.9446 9.17715C76.0115 9.16344 76.0722 9.12225 76.1159 9.06084C76.1596 8.99944 76.1836 8.92176 76.1836 8.8415C76.1836 8.76125 76.1596 8.68357 76.1159 8.62217C76.0722 8.56076 76.0115 8.51957 75.9446 8.50586C75.9446 8.50586 75.1985 8.50586 73.8928 8.50586C72.5871 8.50586 70.7219 8.50586 68.492 8.61607C66.2622 8.72628 63.6593 8.88659 60.8614 9.08698C58.0636 9.28736 55.1046 9.55788 52.1286 9.81838C49.1527 10.0789 46.1937 10.3594 43.4043 10.5798C40.6149 10.8003 38.012 10.9706 35.7737 11.1409C31.3141 11.4716 28.3382 11.6118 28.3382 11.6118C28.1771 11.6118 28.0584 12.0026 28.0668 12.1829C28.0753 12.3633 28.2025 12.724 28.3636 12.724L28.3297 12.6939Z" fill="#3A3C51"/>
<path d="M79.9884 7.2841C79.951 7.37686 79.9225 7.47433 79.9036 7.57465C79.8662 7.75906 79.8662 7.95132 79.9036 8.13573C79.9473 8.31418 80.029 8.47635 80.141 8.60664C80.2051 8.6741 80.2764 8.73136 80.353 8.77697C80.4931 8.85114 80.6519 8.85925 80.7969 8.79965C80.9419 8.74006 81.0621 8.61725 81.133 8.45635C81.1691 8.36387 81.1948 8.26618 81.2093 8.16579C81.2317 7.98327 81.2141 7.79703 81.1585 7.62475C81.1003 7.44779 81.0073 7.28978 80.8871 7.16386C80.8346 7.10772 80.7779 7.05741 80.7176 7.01358C80.59 6.93853 80.4428 6.92478 80.3069 6.97522C80.1709 7.02565 80.0568 7.13636 79.9884 7.2841Z" fill="#3A3C51"/>
<path d="M82.7086 7.01237C82.6466 7.12157 82.6033 7.24413 82.5814 7.37306C82.5232 7.63922 82.5232 7.91847 82.5814 8.18462C82.6491 8.4491 82.7749 8.68764 82.946 8.87595C83.0291 8.96341 83.1235 9.03446 83.2258 9.08636C83.2974 9.11878 83.3742 9.13197 83.4507 9.12497C83.5272 9.11796 83.6014 9.09094 83.6679 9.04587C83.7345 9.00079 83.7917 8.93879 83.8355 8.86434C83.8793 8.7899 83.9085 8.70488 83.921 8.61545V8.5353C83.9274 8.4319 83.9274 8.32809 83.921 8.2247C83.9155 8.03624 83.884 7.85011 83.8277 7.67364C83.7687 7.4944 83.6888 7.32578 83.5903 7.17268L83.4123 6.92219C83.3354 6.83445 83.2353 6.78059 83.1288 6.76965C83.0223 6.75871 82.9158 6.79134 82.8273 6.86208L82.7679 6.94223L82.7086 7.01237Z" fill="#3A3C51"/>
<path d="M85.3699 7.09258C85.3601 7.17134 85.343 7.24861 85.3191 7.32303C85.2972 7.42494 85.2972 7.53171 85.3191 7.63362C85.3502 7.72907 85.4067 7.80996 85.4801 7.86407L85.6243 8.01436H85.7515C85.8663 8.0848 85.9977 8.10826 86.125 8.08107C86.2523 8.05387 86.3684 7.97756 86.4552 7.86407C86.5122 7.78466 86.5554 7.69273 86.5823 7.59355C86.6392 7.40223 86.6392 7.19372 86.5823 7.00241C86.5006 6.82579 86.3727 6.68519 86.2178 6.60164C86.1622 6.56451 86.1021 6.53748 86.0397 6.52148H85.8786C85.7509 6.53202 85.6303 6.59478 85.5374 6.699C85.4446 6.80321 85.3854 6.94238 85.3699 7.09258Z" fill="#3A3C51"/>
</g>
<defs>
<clipPath id="clip0">
<rect width="93" height="26" fill="white" transform="matrix(-1 0 0 1 93 0)"/>
</clipPath>
</defs>
</svg>

<svg xmlns="http://www.w3.org/2000/svg" width="93" height="26" fill="none" xmlns:v="https://vecta.io/nano"><g clip-path="url(#A)" fill="#3a3c51"><path d="M24.598 9.82l4.163-.59 4.154-.51 4.163-.43 4.205-.36 25.113-1.643 8.385-.71 16.703-1.864-1.45-1.443c.17 3.487.17 7.013.076 10.48s-.195 7.104-.093 10.71l1.39-1.613L74.85 20.72l-16.61-1.273-16.584-1.202-16.61-.892c-.225-.013-.445.08-.612.258s-.267.428-.278.694a1.12 1.12 0 0 0 .218.723c.15.197.362.316.587.33l16.55 1.443 16.592 1.503 16.567 1.463 16.635 1.212c.345.008.68-.14.93-.418s.405-.658.425-1.065v-.13c-.093-3.477.22-7.014.288-10.53l.05-10.76c-.055-.435-.25-.83-.543-1.1s-.664-.397-1.034-.354h-.12L74.604 2.625c-5.562.6-11.166 1.062-16.745 1.503L41.097 5.57l-4.197.49-4.188.57-4.146.66-4.18.72a.79.79 0 0 0-.445.374c-.105.185-.15.408-.124.63a.97.97 0 0 0 .259.568c.142.146.324.225.512.223l.008.01z"/><path d="M23.65 2.825l.05 10.1-.068 6.012-.093 6 1.348-1.002c-3.72-2.093-7.207-4.267-10.887-6.462L3.132 10.87v4.158l5.375-2.885 5.57-3.006 2.73-1.683L19.53 5.73a80.43 80.43 0 0 0 2.688-1.824c.483-.34.95-.72 1.433-1.082zm.5-2.745a38.48 38.48 0 0 0-3.001 1.002c-.992.35-1.967.76-2.95 1.152s-1.94.842-2.908 1.262L12.458 4.85c-1.908.932-3.78 1.924-5.655 2.936L3.98 9.308 1.2 10.87h-.085a2.04 2.04 0 0 0-.797.848 2.55 2.55 0 0 0-.279 1.224c.01.43.123.85.33 1.206s.495.634.83.8c3.798 1.874 7.63 3.657 11.47 5.43l11.463 5.46h.05a.81.81 0 0 0 .357.086.81.81 0 0 0 .357-.082.94.94 0 0 0 .304-.238 1.12 1.12 0 0 0 .203-.357 1.3 1.3 0 0 0 .076-.461l-.093-6-.068-6.012L25.37.84a1.14 1.14 0 0 0-.118-.394c-.062-.12-.146-.223-.244-.302a.78.78 0 0 0-.327-.159.72.72 0 0 0-.353.013l-.186.08zm4.2 12.614s2.976-.46 7.436-.7l7.63-.53 8.75-.42 8.75-.43 7.63-.52 5.384-.6 2.035-.3c.067-.014.128-.055.17-.116a.38.38 0 0 0 .068-.219.38.38 0 0 0-.068-.219c-.044-.06-.104-.103-.17-.116h-2.052l-5.4.1-7.63.47-8.733.73-8.724.76-7.63.56-7.435.47c-.16 0-.28.4-.27.57s.136.54.297.54l-.034-.03zm51.658-5.4a1.54 1.54 0 0 0-.085.291c-.037.184-.037.377 0 .56.044.178.125.34.237.47a.98.98 0 0 0 .212.17.52.52 0 0 0 .444.023c.144-.06.265-.182.336-.343a1.32 1.32 0 0 0 .076-.291c.022-.183.005-.37-.05-.54s-.15-.335-.27-.46a1.19 1.19 0 0 0-.169-.15.47.47 0 0 0-.41-.038c-.135.052-.25.16-.32.3zm2.722-.272a1.12 1.12 0 0 0-.127.36 1.91 1.91 0 0 0 0 .812c.068.264.194.503.365.7a1.03 1.03 0 0 0 .28.21.46.46 0 0 0 .225.04.46.46 0 0 0 .217-.079.56.56 0 0 0 .168-.182.68.68 0 0 0 .086-.25v-.08a2.67 2.67 0 0 0 0-.31 2.01 2.01 0 0 0-.093-.551c-.06-.18-.14-.348-.237-.5l-.178-.25c-.077-.088-.177-.142-.284-.153s-.213.022-.302.092l-.06.08-.06.07zm2.66.08c-.01.08-.027.156-.05.23a.74.74 0 0 0 0 .311c.03.095.088.176.16.23l.144.15h.127a.51.51 0 0 0 .374.067.57.57 0 0 0 .33-.217.84.84 0 0 0 .127-.271 1.04 1.04 0 0 0 0-.59.86.86 0 0 0-.365-.401.58.58 0 0 0-.178-.08h-.16c-.128.01-.248.073-.34.178a.7.7 0 0 0-.168.394z"/></g><defs><clipPath id="A"><path fill="#fff" transform="matrix(-1 0 0 1 93 0)" d="M0 0h93v26H0z"/></clipPath></defs></svg>
